X:61
T:Kaloem
C:Traditioneel
O:Duffel
B:"Dansen en volksleven uit Duffel", Vlaams Dansarchief
Z:Bert Van Vreckem <http://flanders.blackmill.net/music/>
M:2/4
L:1/8
K:F
P:A
fz cz|fz z2|fz cz|fz z2||
P:B
cc cB/A/|BB B2|BB B/A/G|AA AC| FG AB|cc cA|BA BG|FF F2||
P:C
|:AD DA|=BA/G/ A2|AD DA|1GF/E/ D2:|2 GF/E/ DE|Fz zD|Dz zD|Fz zE|D2z2|]

